icons/mobile/20/svg/reader-summarize-20.svg

<svg width="20" height="20" viewBox="0 0 20 20" fill="none" xmlns="http://www.w3.org/2000/svg">
<path d="M13.9561 11.1157C14.611 10.9777 15.295 10.9636 15.96 11.0766C16.221 11.1206 16.4471 11.2811 16.5781 11.5161C16.713 11.757 16.7309 12.0433 16.6279 12.2993L16.1494 13.4926C16.7122 13.4856 17.252 13.5097 17.8027 13.5727C18.1357 13.6107 18.4092 13.8212 18.5322 14.1352C18.6561 14.4501 18.5978 14.8041 18.3789 15.061L15.292 18.6801C15.1131 18.89 14.8691 19.0013 14.6143 19.0014L14.6133 18.9995C14.4843 18.9995 14.3526 18.9705 14.2266 18.9125C13.8479 18.7374 13.6459 18.3585 13.7119 17.9467L14.0479 15.8461C13.6129 15.8361 13.1779 15.7979 12.752 15.7309C12.491 15.6899 12.262 15.5341 12.127 15.3041C11.988 15.0691 11.9626 14.7867 12.0566 14.5307L13.002 11.9506C13.16 11.5208 13.5161 11.2076 13.9561 11.1157Z" fill="black"/>
<path d="M5.41602 1.22504C7.80201 0.924042 10.2412 0.925946 12.6152 1.22895C13.976 1.40304 15.0007 2.57575 15.001 3.95746V9.50434C14.545 9.50834 14.0885 9.55389 13.6455 9.64789C13.5947 9.65796 13.5508 9.68473 13.501 9.69769V3.95746C13.5007 3.32867 13.0386 2.79618 12.4258 2.7182C11.2948 2.57322 10.1429 2.49945 9.00098 2.49945C7.87198 2.49945 6.72849 2.5723 5.60449 2.7143C4.97591 2.79351 4.50122 3.32884 4.50098 3.95746V14.0424C4.50121 14.6712 4.96333 15.2037 5.57617 15.2817C7.22909 15.4937 8.91495 15.5476 10.5889 15.4496C10.6449 15.6626 10.72 15.8709 10.834 16.0649L10.835 16.0639C11.0319 16.3979 11.307 16.6637 11.625 16.8637C10.751 16.9447 9.87298 16.9985 9.00098 16.9985C7.79598 16.9985 6.57972 16.922 5.38672 16.77C4.02584 16.5958 3.00098 15.4224 3.00098 14.0405V3.95648C3.0012 2.57368 4.03917 1.40002 5.41602 1.22504Z" fill="black"/>
<path d="M9.25 11.2504C9.66421 11.2504 10 11.5862 10 12.0004C9.99974 12.4144 9.66405 12.7504 9.25 12.7504H6.75C6.33595 12.7504 6.00026 12.4144 6 12.0004C6 11.5862 6.33579 11.2504 6.75 11.2504H9.25Z" fill="black"/>
<path d="M11.25 8.25043C11.6642 8.25043 12 8.58622 12 9.00043C11.9997 9.41442 11.6641 9.75043 11.25 9.75043H6.75C6.33595 9.75043 6.00026 9.41442 6 9.00043C6 8.58622 6.33579 8.25043 6.75 8.25043H11.25Z" fill="black"/>
<path d="M11.25 5.25043C11.6642 5.25043 12 5.58622 12 6.00043C11.9997 6.41442 11.6641 6.75043 11.25 6.75043H6.75C6.33595 6.75043 6.00026 6.41442 6 6.00043C6 5.58622 6.33579 5.25043 6.75 5.25043H11.25Z" fill="black"/>
</svg>

<!-- This Source Code Form is subject to the terms of the Mozilla Public
   - License, v. 2.0. If a copy of the MPL was not distributed with this
   - file, You can obtain one at http://mozilla.org/MPL/2.0/. -->
<svg xmlns="http://www.w3.org/2000/svg" width="20" height="20" fill="none" viewBox="0 0 20 20">
    <path fill="#000" d="M13.956 11.116a5.4 5.4 0 0 1 2.004-.04.87.87 0 0 1 .618.44c.135.241.153.527.05.783l-.479 1.194c.563-.007 1.103.017 1.654.08a.88.88 0 0 1 .73.562.91.91 0 0 1-.154.926l-3.087 3.62a.89.89 0 0 1-.678.32V19a.9.9 0 0 1-.387-.086.89.89 0 0 1-.515-.966l.336-2.1a10 10 0 0 1-1.296-.116.88.88 0 0 1-.625-.427.9.9 0 0 1-.07-.773l.945-2.58a1.3 1.3 0 0 1 .954-.835" />
    <path fill="#000" d="M5.416 1.225c2.386-.301 4.825-.3 7.2.004A2.75 2.75 0 0 1 15 3.957v5.547c-.456.004-.912.05-1.355.144-.051.01-.095.037-.145.05v-5.74c0-.63-.462-1.162-1.075-1.24a27 27 0 0 0-6.822-.004 1.26 1.26 0 0 0-1.103 1.243v10.085c0 .63.462 1.162 1.075 1.24 1.653.212 3.339.266 5.013.168.056.213.131.42.245.615l.001-.001c.197.334.472.6.79.8-.874.08-1.752.134-2.624.134-1.205 0-2.421-.076-3.614-.228A2.75 2.75 0 0 1 3 14.04V3.957a2.76 2.76 0 0 1 2.415-2.731" />
    <path fill="#000" d="M9.25 11.25a.75.75 0 0 1 0 1.5h-2.5a.75.75 0 0 1 0-1.5zM11.25 8.25a.75.75 0 0 1 0 1.5h-4.5a.75.75 0 0 1 0-1.5zM11.25 5.25a.75.75 0 0 1 0 1.5h-4.5a.75.75 0 0 1 0-1.5z" />
</svg>
